X:297
T:Miss Walsh's Fancy
T:Kane's
R:jig
H:Also with parts switched around CCBBAA, see #260
Z:id:hn-jig-297
M:6/8
K:G
DEG Bcd|cee Bdd|DEG BdB|AGE GED|
DEG Bcd|cee ~B3|~g3 dBG|1 AGF G2E:|2 AGF G3||
|:~g3 ded|~B3 def|gfe dBG|AGE GED|
~g3 ded|BGB def|gfe dBG|1 AGF G3:|2 AGF G2E||
|:DEG BGG|dBG AGE|DEG BAG|ABA AGE|
DEG BGG|dBG BAG|~g3 dBG|AGF G2E:|

